src/assets/images/icon/btns-social/yandex.svg

<svg width="40" height="40" viewBox="0 0 40 40" fill="none" xmlns="http://www.w3.org/2000/svg">
<g id="Icon / yandex">
<path id="Vector" d="M20 40C31.0457 40 40 31.2696 40 20.5C40 9.73045 31.0457 1 20 1C8.95431 1 0 9.73045 0 20.5C0 31.2696 8.95431 40 20 40Z" fill="#FC3F1D"/>
<path id="Vector_2" d="M22.3328 32H26V9H20.6664C15.3029 9 12.4845 12.0114 12.4845 16.4461C12.4845 19.9872 14.0301 22.0717 16.7875 24.2227L12 32H15.9693L21.3028 23.2964L19.4546 21.9391C17.2122 20.2851 16.1212 18.9943 16.1212 16.2142C16.1212 13.7653 17.6967 12.1107 20.6969 12.1107H22.3328V32Z" fill="white"/>
</g>
</svg>

<svg xmlns="http://www.w3.org/2000/svg" width="40" height="40" fill="none"><path fill="#FC3F1D" d="M20 40c11.046 0 20-8.73 20-19.5S31.046 1 20 1 0 9.73 0 20.5 8.954 40 20 40Z"/><path fill="#fff" d="M22.333 32H26V9h-5.334c-5.363 0-8.181 3.011-8.181 7.446 0 3.541 1.545 5.626 4.303 7.777L12 32h3.97l5.333-8.704-1.848-1.357c-2.243-1.654-3.334-2.945-3.334-5.725 0-2.449 1.576-4.103 4.576-4.103h1.636V32Z"/></svg>
